packages/storefront-lwc/src/assets/fonts/flags/4x3/nz.svg

<svg height="480" width="640" xmlns="http://www.w3.org/2000/svg" xmlns:xlink="http://www.w3.org/1999/xlink"><defs><g id="a"><g id="b"><path d="m0 0v.5l1-.5z" transform="translate(0 -.325)"/><path d="m0 0v-.5l1 .5z" transform="matrix(.80901699 -.58778525 .58778525 .80901699 .190713 .262953)"/></g><use transform="scale(-1 1)" xlink:href="#b"/><use transform="matrix(.30901699 .95105652 -.95105652 .30901699 0 0)" xlink:href="#b"/><use transform="matrix(.30901699 -.95105652 .95105652 .30901699 0 0)" xlink:href="#b"/><use transform="matrix(-.30901699 .95105652 .95105652 .30901699 0 0)" xlink:href="#b"/></g><clipPath id="c"><path d="m0 0h600v300h-600z"/></clipPath><clipPath id="d"><path d="m0 0 300 150h-300zm300 0h300l-300 150zm0 150h300v150zm0 0v150h-300z"/></clipPath></defs><path d="m.004 0h640v480h-640z" fill="#00247d" fill-rule="evenodd"/><g transform="matrix(.66825 0 0 .66825 -92.947 36.115)"><use fill="#fff" height="100%" transform="matrix(45.4 0 0 45.4 900 120)" width="100%" xlink:href="#a"/><use fill="#cc142b" height="100%" transform="matrix(30 0 0 30 900 120)" width="100%" xlink:href="#a"/></g><g transform="matrix(.09300242 .66174664 -.66174664 .09300242 583.596385 -421.396843)"><use fill="#fff" height="100%" transform="matrix(5.62259328 -40.00682998 40.00682998 5.62259328 900.000125 119.99971)" width="100%" xlink:href="#a"/><use fill="#cc142b" height="100%" transform="matrix(3.47932752 -24.75670172 24.75670172 3.47932752 900.000125 119.99971)" width="100%" xlink:href="#a"/></g><g transform="matrix(.09300242 .66174664 -.66174664 .09300242 583.596385 -421.396843)"><use fill="#fff" height="100%" transform="matrix(6.31845878 -44.95817032 44.95817032 6.31845878 900.000217 379.999816)" width="100%" xlink:href="#a"/><use fill="#cc142b" height="100%" transform="matrix(4.17519303 -29.70804206 29.70804206 4.17519303 900.000217 379.999816)" width="100%" xlink:href="#a"/></g><g transform="matrix(.66825 0 0 .66825 -92.947 36.115)"><use fill="#fff" height="100%" transform="matrix(50.4 0 0 50.4 900 480)" width="100%" xlink:href="#a"/><use fill="#cc142b" height="100%" transform="matrix(35 0 0 35 900 480)" width="100%" xlink:href="#a"/></g><path clip-path="url(#c)" d="m0 0 600 300m-600 0 600-300" stroke="#fff" stroke-width="60" transform="matrix(.60681 0 0 .73139 .004 0)"/><path clip-path="url(#d)" d="m0 0 600 300m-600 0 600-300" stroke="#cc142b" stroke-width="40" transform="matrix(.60681 0 0 .73139 .004 0)"/><path clip-path="url(#c)" d="m151.707-.002v79.37h-151.703v60.68h151.703v79.37h60.682v-79.37h151.703v-60.68h-151.703v-79.371z" fill="#fff"/><path d="m163.844.002v91.502h-163.84v36.408h163.84v91.502h36.408v-91.502h163.84v-36.408h-163.84v-91.502z" fill="#cc142b"/></svg>

<svg xmlns="http://www.w3.org/2000/svg" xmlns:xlink="http://www.w3.org/1999/xlink" height="480" width="640" id="flag-icon-css-nz">
  <defs>
    <g id="b">
      <g id="a">
        <path transform="translate(0 -.325)" d="M0 0v.5L1 0z"/>
        <path transform="rotate(-36 .5 -.162)" d="M0 0v-.5L1 0z"/>
      </g>
      <use transform="scale(-1 1)" xlink:href="#a"/>
      <use transform="rotate(72 0 0)" xlink:href="#a"/>
      <use transform="rotate(-72 0 0)" xlink:href="#a"/>
      <use transform="scale(-1 1) rotate(72)" xlink:href="#a"/>
    </g>
    <clipPath id="c">
      <path d="M0 0h600v300H0z"/>
    </clipPath>
    <clipPath id="d">
      <path d="M0 0l300 150H0zm300 0h300L300 150zm0 150h300v150zm0 0v150H0z"/>
    </clipPath>
  </defs>
  <path d="M.004 0h640v480h-640z" fill="#00247d" fill-rule="evenodd"/>
  <g transform="translate(-92.947 36.115) scale(.66825)">
    <use fill="#fff" height="100%" width="100%" xlink:href="#b" transform="matrix(45.4 0 0 45.4 900 120)"/>
    <use fill="#cc142b" height="100%" width="100%" xlink:href="#b" transform="matrix(30 0 0 30 900 120)"/>
  </g>
  <g transform="rotate(82 534.179 124.977) scale(.66825)">
    <use fill="#fff" height="100%" width="100%" xlink:href="#b" transform="rotate(-82 519.022 -457.666) scale(40.4)"/>
    <use fill="#cc142b" height="100%" width="100%" xlink:href="#b" transform="rotate(-82 519.022 -457.666) scale(25)"/>
  </g>
  <g transform="rotate(82 534.179 124.977) scale(.66825)">
    <use fill="#fff" height="100%" width="100%" xlink:href="#b" transform="rotate(-82 668.57 -327.666) scale(45.4)"/>
    <use fill="#cc142b" height="100%" width="100%" xlink:href="#b" transform="rotate(-82 668.57 -327.666) scale(30)"/>
  </g>
  <g transform="translate(-92.947 36.115) scale(.66825)">
    <use fill="#fff" height="100%" width="100%" xlink:href="#b" transform="matrix(50.4 0 0 50.4 900 480)"/>
    <use fill="#cc142b" height="100%" width="100%" xlink:href="#b" transform="matrix(35 0 0 35 900 480)"/>
  </g>
  <path clip-path="url(#c)" d="M0 0l600 300M0 300L600 0" transform="matrix(.60681 0 0 .73139 .004 0)" stroke="#fff" stroke-width="60"/>
  <path clip-path="url(#d)" d="M0 0l600 300M0 300L600 0" transform="matrix(.60681 0 0 .73139 .004 0)" stroke="#cc142b" stroke-width="40"/>
  <path style="line-height:normal;text-indent:0;text-align:start;text-decoration-line:none;text-decoration-style:solid;text-decoration-color:#000;text-transform:none;block-progression:tb;isolation:auto;mix-blend-mode:normal" clip-path="url(#c)" d="M151.707-.002v79.37H.004v60.68h151.703v79.37h60.682v-79.37h151.703v-60.68H212.389V-.003z" color="#000" font-weight="400" font-family="sans-serif" white-space="normal" overflow="visible" fill="#fff"/>
  <path style="line-height:normal;text-indent:0;text-align:start;text-decoration-line:none;text-decoration-style:solid;text-decoration-color:#000;text-transform:none;block-progression:tb;isolation:auto;mix-blend-mode:normal" d="M163.844.002v91.502H.004v36.408h163.84v91.502h36.408v-91.502h163.84V91.504h-163.84V.002z" color="#000" font-weight="400" font-family="sans-serif" white-space="normal" overflow="visible" fill="#cc142b"/>
</svg>
